src/images/icons/instagram-icon.svg

<svg width="35" height="35" viewBox="0 0 35 35" fill="none" xmlns="http://www.w3.org/2000/svg">
<g id="Instagram 1" clip-path="url(#clip0_1185_3929)">
<g id="Clip path group">
<mask id="mask0_1185_3929" style="mask-type:luminance" maskUnits="userSpaceOnUse" x="0" y="0" width="35" height="35">
<g id="clip0_1163_863">
<path id="Vector" d="M35 17.5C35 7.83502 27.165 0 17.5 0C7.83502 0 0 7.83502 0 17.5C0 27.165 7.83502 35 17.5 35C27.165 35 35 27.165 35 17.5Z" fill="white"/>
</g>
</mask>
<g mask="url(#mask0_1185_3929)">
<g id="Group">
<path id="Vector_2" d="M35 17.5C35 7.83502 27.165 0 17.5 0C7.83502 0 0 7.83502 0 17.5C0 27.165 7.83502 35 17.5 35C27.165 35 35 27.165 35 17.5Z" fill="white"/>
<path id="Vector_3" fill-rule="evenodd" clip-rule="evenodd" d="M35 0H0V35H35V0ZM17.6121 14.4207C15.8518 14.4207 14.4253 15.8472 14.4253 17.6064C14.4253 19.3656 15.8518 20.7921 17.6121 20.7921C19.3724 20.7921 20.7998 19.3656 20.7998 17.6064C20.7998 15.8472 19.3724 14.4207 17.6121 14.4207ZM17.6121 22.5135C14.9003 22.5135 12.7021 20.3166 12.7021 17.6064C12.7021 14.8962 14.9003 12.6993 17.6121 12.6993C20.3239 12.6993 22.5222 14.8962 22.5222 17.6064C22.5222 20.3166 20.3239 22.5135 17.6121 22.5135ZM21.7622 13.1419C21.6362 12.9533 21.569 12.7315 21.5691 12.5047C21.5693 12.2007 21.6903 11.9092 21.9055 11.6943C22.1206 11.4794 22.4123 11.3585 22.7165 11.3584H22.717C22.9439 11.3585 23.1658 11.4259 23.3544 11.5519C23.5431 11.678 23.6901 11.8572 23.7768 12.0668C23.8636 12.2764 23.8862 12.5069 23.8419 12.7294C23.7975 12.9518 23.6881 13.1561 23.5276 13.3164C23.3671 13.4767 23.1625 13.5858 22.9399 13.63C22.7173 13.6742 22.4866 13.6514 22.277 13.5645C22.0674 13.4776 21.8882 13.3306 21.7622 13.1419ZM11.9733 25.0563C12.31 25.1874 12.8168 25.3426 13.749 25.385C14.7566 25.4314 15.0586 25.4406 17.6121 25.4406C20.1657 25.4406 20.4685 25.4314 21.4763 25.385C22.4086 25.3427 22.9155 25.1875 23.2521 25.0563C23.6985 24.8826 24.0175 24.6754 24.352 24.3415C24.6864 24.0075 24.8934 23.6892 25.0672 23.243C25.1976 22.9065 25.3537 22.4001 25.3961 21.4684C25.4425 20.4602 25.4518 20.1585 25.4518 17.6065C25.4518 15.0544 25.4425 14.7527 25.3961 13.7445C25.3538 12.8128 25.1985 12.3062 25.0672 11.9699C24.8934 11.5237 24.6869 11.2049 24.352 10.8707C24.0171 10.5364 23.6985 10.3288 23.2521 10.1558C22.9145 10.0259 22.4086 9.86954 21.4763 9.82709C20.4676 9.78156 20.1645 9.77151 17.6121 9.77151C15.0597 9.77151 14.7569 9.78078 13.749 9.82709C12.8168 9.86948 12.3099 10.0247 11.9733 10.1558C11.5261 10.3288 11.2079 10.5359 10.8734 10.8707C10.539 11.2054 10.332 11.5237 10.1582 11.9699C10.0281 12.3073 9.87171 12.8128 9.82926 13.7445C9.78365 14.7527 9.77364 15.0544 9.77364 17.6065C9.77364 20.1585 9.78288 20.4611 9.82926 21.4684C9.87161 22.4001 10.0269 22.9067 10.1582 23.243C10.3312 23.6892 10.5385 24.0073 10.8734 24.3415C11.2083 24.6757 11.5269 24.8826 11.9733 25.0563ZM11.3489 8.55176C11.9563 8.31551 12.6519 8.15419 13.6698 8.10789C14.6899 8.06078 15.0161 8.05 17.6129 8.05C20.2097 8.05 20.5356 8.06155 21.5552 8.10789C22.5723 8.15342 23.2675 8.31551 23.8762 8.55176C24.5041 8.79571 25.0379 9.12215 25.5693 9.65401C26.1006 10.1859 26.4274 10.7185 26.6722 11.3469C26.9086 11.954 27.07 12.6491 27.1163 13.6665C27.1627 14.6854 27.1735 15.0112 27.1735 17.6064C27.1735 20.2016 27.1627 20.5266 27.1163 21.5463C27.0707 22.5636 26.9086 23.2584 26.6722 23.8659C26.4274 24.4943 26.1015 25.0277 25.5693 25.5588C25.0371 26.0898 24.5041 26.4164 23.8754 26.661C23.2675 26.8973 22.5724 27.0586 21.5544 27.1049C20.5348 27.152 20.2089 27.1628 17.6121 27.1628C15.0154 27.1628 14.6899 27.1512 13.6698 27.1049C12.6519 27.0586 11.9575 26.8973 11.3489 26.661C10.7197 26.4164 10.1871 26.0896 9.65499 25.5588C9.12285 25.0279 8.79617 24.4943 8.55204 23.8659C8.31569 23.2584 8.15427 22.5637 8.10793 21.5463C8.06078 20.5274 8.05 20.2016 8.05 17.6064C8.05 15.0112 8.06078 14.6854 8.10793 13.6665C8.15427 12.6491 8.31569 11.9544 8.55204 11.3469C8.79617 10.7182 9.12278 10.185 9.65499 9.65401C10.1872 9.12299 10.7197 8.79571 11.3489 8.55176Z" fill="url(#paint0_linear_1185_3929)"/>
</g>
</g>
</g>
</g>
<defs>
<linearGradient id="paint0_linear_1185_3929" x1="34.3273" y1="35" x2="-0.6727" y2="0" gradientUnits="userSpaceOnUse">
<stop stop-color="#FBE18A"/>
<stop offset="0.21" stop-color="#FCBB45"/>
<stop offset="0.38" stop-color="#F75274"/>
<stop offset="0.52" stop-color="#D53692"/>
<stop offset="0.74" stop-color="#8F39CE"/>
<stop offset="1" stop-color="#5B4FE9"/>
</linearGradient>
<clipPath id="clip0_1185_3929">
<rect width="35" height="35" fill="white"/>
</clipPath>
</defs>
</svg>

<svg width="35" height="35" fill="none" xmlns="http://www.w3.org/2000/svg"><g clip-path="url(#a)"><mask id="b" style="mask-type:luminance" maskUnits="userSpaceOnUse" x="0" y="0" width="35" height="35"><path d="M35 17.5C35 7.835 27.165 0 17.5 0S0 7.835 0 17.5 7.835 35 17.5 35 35 27.165 35 17.5Z" fill="#fff"/></mask><g mask="url(#b)"><path d="M35 17.5C35 7.835 27.165 0 17.5 0S0 7.835 0 17.5 7.835 35 17.5 35 35 27.165 35 17.5Z" fill="#fff"/><path fill-rule="evenodd" clip-rule="evenodd" d="M35 0H0v35h35V0ZM17.612 14.42a3.186 3.186 0 1 0 3.188 3.186 3.187 3.187 0 0 0-3.188-3.185Zm0 8.094a4.908 4.908 0 0 1-4.91-4.908 4.908 4.908 0 0 1 4.91-4.907 4.909 4.909 0 0 1 4.91 4.907 4.909 4.909 0 0 1-4.91 4.907Zm4.15-9.372a1.146 1.146 0 0 1 .954-1.784h.001a1.149 1.149 0 0 1 1.125 1.371 1.147 1.147 0 0 1-2.08.413Zm-9.789 11.914c.337.131.844.287 1.776.329 1.008.046 1.31.056 3.863.056 2.554 0 2.857-.01 3.864-.056.933-.042 1.44-.198 1.776-.329.447-.173.765-.38 1.1-.715.334-.334.541-.652.715-1.098.13-.336.287-.843.33-1.775.046-1.008.055-1.31.055-3.861 0-2.553-.01-2.854-.056-3.862-.042-.932-.198-1.439-.329-1.775a2.96 2.96 0 0 0-.715-1.1 2.963 2.963 0 0 0-1.1-.714c-.337-.13-.843-.286-1.776-.329-1.008-.045-1.311-.055-3.864-.055-2.552 0-2.855.009-3.863.055-.932.042-1.44.198-1.776.329-.447.173-.765.38-1.1.715a2.97 2.97 0 0 0-.715 1.099c-.13.337-.286.843-.329 1.774-.045 1.009-.055 1.31-.055 3.863 0 2.552.009 2.854.055 3.861.043.932.198 1.439.33 1.775.172.446.38.764.714 1.099.335.334.654.54 1.1.714ZM11.35 8.552c.607-.236 1.303-.398 2.32-.444 1.02-.047 1.347-.058 3.944-.058s2.923.012 3.942.058c1.017.045 1.712.208 2.321.444a4.68 4.68 0 0 1 1.693 1.102 4.7 4.7 0 0 1 1.103 1.693c.237.607.398 1.302.444 2.32.047 1.018.058 1.344.058 3.94 0 2.595-.011 2.92-.058 3.94-.045 1.017-.207 1.711-.444 2.319a4.681 4.681 0 0 1-1.103 1.693 4.703 4.703 0 0 1-1.694 1.102c-.608.236-1.303.398-2.32.444-1.02.047-1.346.058-3.943.058s-2.922-.012-3.942-.058c-1.018-.046-1.713-.208-2.321-.444a4.7 4.7 0 0 1-1.694-1.102 4.672 4.672 0 0 1-1.103-1.693c-.236-.608-.398-1.302-.444-2.32-.047-1.019-.058-1.344-.058-3.94 0-2.595.01-2.92.058-3.94.046-1.017.208-1.712.444-2.32a4.67 4.67 0 0 1 1.103-1.692 4.69 4.69 0 0 1 1.694-1.102Z" fill="url(#c)"/></g></g><defs><linearGradient id="c" x1="34.327" y1="35" x2="-.673" y2="0" gradientUnits="userSpaceOnUse"><stop stop-color="#FBE18A"/><stop offset=".21" stop-color="#FCBB45"/><stop offset=".38" stop-color="#F75274"/><stop offset=".52" stop-color="#D53692"/><stop offset=".74" stop-color="#8F39CE"/><stop offset="1" stop-color="#5B4FE9"/></linearGradient><clipPath id="a"><path fill="#fff" d="M0 0h35v35H0z"/></clipPath></defs></svg>
